X: 1
T: Dear Ould Ireland
%R: hornpipe
S: printed page ofknown origin from Darlene Wigton 2019-3-2
Z: 2019 John Chambers <jc:trillian.mit.edu>
M: C
L: 1/16
K: D
%%continueall 1
z2A2 | "D"d3c d3f "G"e3d "A"B3A | "D"d3A d3f a6 a2 |
w: So here's a drink to you me boys and here's a drink to me  And
   "G"b3b b3a "D"b3a f3d | "Em"e3f e3d "A"B6 A2 |
w: here's a drink to all our com-rades in the com-pa-ny  And
   "D"d3c d3f "G"e3d "A"B3A | "D"d3A d3f a6 f2 |
w: when we're on the o-cean may the fates most kind-ly be  And
   "G"g3f g3a "Em"b3g e3c | "A"e8 "D"d8 |] z16 | z4z4 z4A4 |
w: bring us safe-ly home to Dear Old Ire-land. | |  Our
   "D"d3c d3e f3a "G"b3b | "D"a3f "A"e3f "D"d6 a2 |
w: ship is lay-ing wait-ing for to sail the rag-ing main With
   "G"b3b b3a "D"f3a2f3 | "A"e3e a3e "D"f6 a2 |
w: car-go full of whis-key and tons of I-rish grain  We're
   "G"b3a b3a "D"f3a a3f | "A"e3e a3e "Bm"f6 f2 |
w: head-ed for the sun-ny shores of Por-tu-gal and Spain  But
   "G"g3f g3e "Em"b3g e3c | "A"e8 "D"d8 | z16 | z16 |]
w: soon we will re-turn to Dear Ould Ire-land.

%%sep 1 1 500

